svgs/thin/toothbrush.svg

<svg xmlns="http://www.w3.org/2000/svg" viewBox="0 0 576 512"><!--! Font Awesome Pro 6.1.1 by @fontawesome - https://fontawesome.com License - https://fontawesome.com/license (Commercial License) Copyright 2022 Fonticons, Inc. --><path d="M568 464H32c-9.709 0-17.43-8.693-15.78-18.71C17.52 437.4 24.93 432 32.9 432H568c4.418 0 8-3.582 8-8S572.4 416 568 416H448V264C448 259.6 444.4 256 440 256S432 259.6 432 264V416H384V264C384 259.6 380.4 256 376 256S368 259.6 368 264V416H320V264C320 259.6 316.4 256 312 256S304 259.6 304 264V416H256V264C256 259.6 252.4 256 248 256S240 259.6 240 264V416H192V264C192 259.6 188.4 256 184 256S176 259.6 176 264V416H128V264C128 259.6 124.4 256 120 256S112 259.6 112 264V416H64V264C64 259.6 60.41 256 56 256S48 259.6 48 264V416H33.38c-16.71 0-31.64 12.22-33.22 28.86C-1.67 463.9 13.29 480 32 480h536c4.418 0 8-3.582 8-8S572.4 464 568 464zM64 224h346.1C448.7 224 480 194.1 480 157.3C480 88.22 420.9 32 348.3 32c-3.281 0-6.219 2-7.438 5.031c-1.219 3.047-.4375 6.516 1.938 8.766c9.844 9.359 9.469 22.44 5.844 31.56C345 86.36 336.3 96 322.7 96H64C28.72 96 0 124.7 0 160S28.72 224 64 224zM64 112h258.7c18.09 0 33.75-11 40.81-28.72c4.594-11.53 4.562-23.78 .3438-34.3C420.3 56.17 464 102 464 157.3C464 185.3 439.8 208 410.1 208H64C37.53 208 16 186.5 16 160S37.53 112 64 112z"/></svg>

<svg xmlns="http://www.w3.org/2000/svg" viewBox="0 0 576 512"><!--! Font Awesome Pro 6.5.1 by @fontawesome - https://fontawesome.com License - https://fontawesome.com/license (Commercial License) Copyright 2023 Fonticons, Inc. --><path d="M64 208c-26.5 0-48-21.5-48-48s21.5-48 48-48H288c20.2 0 35.1-7.8 44.3-21.7c8.3-12.5 10.5-28.2 11.3-41.4l0-.1c23.4 2.6 45.7 10.8 61.9 24C421.7 86 432 104.1 432 128c0 44.2-35.8 80-80 80H64zM0 160c0 35.3 28.7 64 64 64H352c53 0 96-43 96-96c0-58.5-51.6-89.9-104-95.2c-8.8-.9-15.8 6.4-16.4 15.2c-1.5 25.3-8.4 48-39.6 48H64C28.7 96 0 124.7 0 160zM64 264c0-4.4-3.6-8-8-8s-8 3.6-8 8V416H32c-17.7 0-32 14.3-32 32s14.3 32 32 32H568c4.4 0 8-3.6 8-8s-3.6-8-8-8H32c-8.8 0-16-7.2-16-16s7.2-16 16-16H56h64 64 64 64 64H568c4.4 0 8-3.6 8-8s-3.6-8-8-8H384V264c0-4.4-3.6-8-8-8s-8 3.6-8 8V416H320V264c0-4.4-3.6-8-8-8s-8 3.6-8 8V416H256V264c0-4.4-3.6-8-8-8s-8 3.6-8 8V416H192V264c0-4.4-3.6-8-8-8s-8 3.6-8 8V416H128V264c0-4.4-3.6-8-8-8s-8 3.6-8 8V416H64V264z"/></svg>
